X: 35663
T: Sailor's Cravat, The
R: reel
M: 4/4
K: Dmajor
d2fe dcBd|ABFB ADFA|d2fe dcBd|1 AFDE FEE2:|2 AFGE FDD2||
AddA BAFA|defd Bee2|1 AddA BAdB|AFGE FDD2:|2 AddA BAfe|dBAG FDD2||

